src/qt-components/marble-touch/icons/routing-motorcar.svg

<?xml version="1.0" encoding="UTF-8" standalone="no"?>
<!-- Created with Inkscape (http://www.inkscape.org/) -->

<svg
   xmlns:dc="http://purl.org/dc/elements/1.1/"
   xmlns:cc="http://creativecommons.org/ns#"
   xmlns:rdf="http://www.w3.org/1999/02/22-rdf-syntax-ns#"
   xmlns:svg="http://www.w3.org/2000/svg"
   xmlns="http://www.w3.org/2000/svg"
   xmlns:sodipodi="http://sodipodi.sourceforge.net/DTD/sodipodi-0.dtd"
   xmlns:inkscape="http://www.inkscape.org/namespaces/inkscape"
   version="1.0"
   width="70.310822"
   height="32"
   id="svg2"
   inkscape:version="0.48.2 r9819"
   sodipodi:docname="routing-motorcar.svg">
  <metadata
     id="metadata12">
    <rdf:RDF>
      <cc:Work
         rdf:about="">
        <dc:format>image/svg+xml</dc:format>
        <dc:type
           rdf:resource="http://purl.org/dc/dcmitype/StillImage" />
      </cc:Work>
    </rdf:RDF>
  </metadata>
  <sodipodi:namedview
     pagecolor="#ffffff"
     bordercolor="#666666"
     borderopacity="1"
     objecttolerance="10"
     gridtolerance="10"
     guidetolerance="10"
     inkscape:pageopacity="0"
     inkscape:pageshadow="2"
     inkscape:window-width="1185"
     inkscape:window-height="799"
     id="namedview10"
     showgrid="false"
     fit-margin-top="0"
     fit-margin-left="0"
     fit-margin-right="0"
     fit-margin-bottom="0"
     inkscape:zoom="5.6568542"
     inkscape:cx="29.824093"
     inkscape:cy="4.2643097"
     inkscape:window-x="624"
     inkscape:window-y="77"
     inkscape:window-maximized="0"
     inkscape:current-layer="layer1" />
  <defs
     id="defs4" />
  <g
     id="layer1"
     transform="matrix(0.12258013,0,0,0.12258013,-0.67324672,-0.55244695)">
    <g
       id="g3759"
       transform="matrix(0.84489155,0,0,0.84489155,0.85190192,41.190682)">
      <path
         inkscape:connector-curvature="0"
         id="path25345"
         style="fill:#000000;fill-opacity:1;fill-rule:nonzero;stroke:none"
         transform="matrix(1.079545,0,0,1.079545,-521.3741,-27.12071)"
         d="m 640.23853,222.03787 a 49.07752,49.07752 0 1 1 -98.15504,0 49.07752,49.07752 0 1 1 98.15504,0 z" />
      <path
         id="path24454"
         transform="matrix(8.157929,0,0,8.157929,5.492299,4.5068144)"
         d="M 35.84375,0 C 35.11635,-0.04476342 34.720843,0.31836212 34.375,0.71875 l -10.5,10.5 -22.96875,3.8125 C 0.58632358,15.310207 0.25708809,15.593675 0,16.3125 l 0.0625,7.90625 C 0.56055859,25.48497 0.87304073,25.323676 1.25,25.5 l 4.4375,0 c 0,-10.74069 16,-10.699637 16,0 l 40.78125,0 c 0,-10.763238 15.90625,-10.7413 15.90625,0 l 3.625,0 c 0.608955,-0.05604 0.928519,-0.589003 1.21875,-1.21875 l -0.0625,-11 C 83.11253,13.045664 83.047304,12.770425 82.875,12.40625 L 67.25,0 35.84375,0 z M 35.3125,3.3125 c 0.0589,-0.015308 0.142074,-0.01136 0.21875,0 l 13.90625,0 0,9.46875 -21.75,0 c -0.828654,-0.326854 -0.938518,-0.834547 -0.59375,-1.4375 L 34.90625,3.625 C 35.038586,3.512539 35.135807,3.3584248 35.3125,3.3125 z m 16.71875,0 11.71875,0 c 0.306705,-0.045439 0.417302,0.162552 0.59375,0.3125 l 6.71875,6.75 c 0.618401,0.931312 1.850388,2.217977 0.90625,2.40625 l -19.9375,0 0,-9.46875 z"
         style="fill:#000000;fill-opacity:1;fill-rule:evenodd;stroke:none"
         inkscape:connector-curvature="0" />
      <path
         inkscape:connector-curvature="0"
         id="path25343"
         style="fill:#000000;fill-opacity:1;fill-rule:nonzero;stroke:none"
         transform="matrix(1.079545,0,0,1.079545,-58.73586,-27.14299)"
         d="m 640.23853,222.03787 a 49.07752,49.07752 0 1 1 -98.15504,0 49.07752,49.07752 0 1 1 98.15504,0 z" />
    </g>
  </g>
</svg>

<?xml version="1.0" encoding="UTF-8" standalone="no"?>
<!-- Created with Inkscape (http://www.inkscape.org/) -->

<svg
   xmlns:dc="http://purl.org/dc/elements/1.1/"
   xmlns:cc="http://creativecommons.org/ns#"
   xmlns:rdf="http://www.w3.org/1999/02/22-rdf-syntax-ns#"
   xmlns:svg="http://www.w3.org/2000/svg"
   xmlns="http://www.w3.org/2000/svg"
   xmlns:sodipodi="http://sodipodi.sourceforge.net/DTD/sodipodi-0.dtd"
   xmlns:inkscape="http://www.inkscape.org/namespaces/inkscape"
   version="1.0"
   width="83.227119"
   height="32"
   id="svg2"
   inkscape:version="0.48.2 r9819"
   sodipodi:docname="routing-motorcar.svg">
  <metadata
     id="metadata12">
    <rdf:RDF>
      <cc:Work
         rdf:about="">
        <dc:format>image/svg+xml</dc:format>
        <dc:type
           rdf:resource="http://purl.org/dc/dcmitype/StillImage" />
      </cc:Work>
    </rdf:RDF>
  </metadata>
  <sodipodi:namedview
     pagecolor="#ffffff"
     bordercolor="#666666"
     borderopacity="1"
     objecttolerance="10"
     gridtolerance="10"
     guidetolerance="10"
     inkscape:pageopacity="0"
     inkscape:pageshadow="2"
     inkscape:window-width="1185"
     inkscape:window-height="799"
     id="namedview10"
     showgrid="false"
     fit-margin-top="0"
     fit-margin-left="0"
     fit-margin-right="0"
     fit-margin-bottom="0"
     inkscape:zoom="5.6568542"
     inkscape:cx="29.824093"
     inkscape:cy="4.2643082"
     inkscape:window-x="128"
     inkscape:window-y="140"
     inkscape:window-maximized="0"
     inkscape:current-layer="layer1" />
  <defs
     id="defs4" />
  <g
     id="layer1"
     transform="matrix(0.12258013,0,0,0.12258013,-0.67324673,-0.55244589)">
    <g
       id="g3759">
      <path
         inkscape:connector-curvature="0"
         id="path25345"
         style="fill:#000000;fill-opacity:1;fill-rule:nonzero;stroke:none"
         transform="matrix(1.079545,0,0,1.079545,-521.3741,-27.12071)"
         d="m 640.23853,222.03787 a 49.07752,49.07752 0 1 1 -98.15504,0 49.07752,49.07752 0 1 1 98.15504,0 z" />
      <path
         id="path24454"
         transform="matrix(8.157929,0,0,8.157929,5.492299,4.5068144)"
         d="M 35.84375 0 C 35.11635 -0.04476342 34.720843 0.31836212 34.375 0.71875 L 23.875 11.21875 L 0.90625 15.03125 C 0.58632358 15.310207 0.25708809 15.593675 0 16.3125 L 0.0625 24.21875 C 0.56055859 25.48497 0.87304073 25.323676 1.25 25.5 L 5.6875 25.5 C 5.6875 14.75931 21.6875 14.800363 21.6875 25.5 L 62.46875 25.5 C 62.46875 14.736762 78.375 14.7587 78.375 25.5 L 82 25.5 C 82.608955 25.443958 82.928519 24.910997 83.21875 24.28125 L 83.15625 13.28125 C 83.112535 13.045664 83.047304 12.770425 82.875 12.40625 L 67.25 0 L 35.84375 0 z M 35.3125 3.3125 C 35.371398 3.2971917 35.454574 3.3011402 35.53125 3.3125 L 49.4375 3.3125 L 49.4375 12.78125 L 27.6875 12.78125 C 26.858846 12.454396 26.748982 11.946703 27.09375 11.34375 L 34.90625 3.625 C 35.038586 3.512539 35.135807 3.3584248 35.3125 3.3125 z M 52.03125 3.3125 L 63.75 3.3125 C 64.056705 3.2670606 64.167302 3.475052 64.34375 3.625 L 71.0625 10.375 C 71.680901 11.306312 72.912888 12.592977 71.96875 12.78125 L 52.03125 12.78125 L 52.03125 3.3125 z "
         style="fill:#000000;fill-opacity:1;fill-rule:evenodd;stroke:none" />
      <path
         inkscape:connector-curvature="0"
         id="path25343"
         style="fill:#000000;fill-opacity:1;fill-rule:nonzero;stroke:none"
         transform="matrix(1.079545,0,0,1.079545,-58.73586,-27.14299)"
         d="m 640.23853,222.03787 a 49.07752,49.07752 0 1 1 -98.15504,0 49.07752,49.07752 0 1 1 98.15504,0 z" />
    </g>
  </g>
</svg>
